images/5459559.svg

<?xml version="1.0" encoding="UTF-8"?>
<svg xmlns="http://www.w3.org/2000/svg" xmlns:xlink="http://www.w3.org/1999/xlink" width="300pt" height="300pt" viewBox="0 0 300 300" version="1.1">
<defs>
<g>
<symbol overflow="visible" id="glyph0-0">
<path style="stroke:none;" d="M 0.453125 1.59375 L 0.453125 -6.34375 L 4.953125 -6.34375 L 4.953125 1.59375 Z M 0.953125 1.09375 L 4.453125 1.09375 L 4.453125 -5.84375 L 0.953125 -5.84375 Z M 0.953125 1.09375 "/>
</symbol>
<symbol overflow="visible" id="glyph0-1">
<path style="stroke:none;" d="M 3.546875 -5.953125 C 2.898438 -5.953125 2.382812 -5.710938 2 -5.234375 C 1.625 -4.753906 1.4375 -4.101562 1.4375 -3.28125 C 1.4375 -2.445312 1.625 -1.789062 2 -1.3125 C 2.382812 -0.832031 2.898438 -0.59375 3.546875 -0.59375 C 4.191406 -0.59375 4.703125 -0.832031 5.078125 -1.3125 C 5.453125 -1.789062 5.640625 -2.445312 5.640625 -3.28125 C 5.640625 -4.101562 5.453125 -4.753906 5.078125 -5.234375 C 4.703125 -5.710938 4.191406 -5.953125 3.546875 -5.953125 Z M 3.546875 -6.6875 C 4.460938 -6.6875 5.195312 -6.375 5.75 -5.75 C 6.300781 -5.132812 6.578125 -4.3125 6.578125 -3.28125 C 6.578125 -2.238281 6.300781 -1.410156 5.75 -0.796875 C 5.195312 -0.179688 4.460938 0.125 3.546875 0.125 C 2.617188 0.125 1.878906 -0.179688 1.328125 -0.796875 C 0.773438 -1.410156 0.5 -2.238281 0.5 -3.28125 C 0.5 -4.3125 0.773438 -5.132812 1.328125 -5.75 C 1.878906 -6.375 2.617188 -6.6875 3.546875 -6.6875 Z M 3.546875 -6.6875 "/>
</symbol>
<symbol overflow="visible" id="glyph0-2">
<path style="stroke:none;" d="M 0.890625 -6.5625 L 1.765625 -6.5625 L 1.765625 -3.875 L 5 -3.875 L 5 -6.5625 L 5.890625 -6.5625 L 5.890625 0 L 5 0 L 5 -3.125 L 1.765625 -3.125 L 1.765625 0 L 0.890625 0 Z M 0.890625 -6.5625 "/>
</symbol>
<symbol overflow="visible" id="glyph0-3">
<path style="stroke:none;" d="M 0.890625 -6.5625 L 2.078125 -6.5625 L 4.984375 -1.078125 L 4.984375 -6.5625 L 5.84375 -6.5625 L 5.84375 0 L 4.65625 0 L 1.75 -5.484375 L 1.75 0 L 0.890625 0 Z M 0.890625 -6.5625 "/>
</symbol>
</g>
</defs>
<g id="surface37509">
<rect x="0" y="0" width="300" height="300" style="fill:rgb(100%,100%,100%);fill-opacity:1;stroke:none;"/>
<path style="fill:none;stroke-width:1;stroke-linecap:butt;stroke-linejoin:miter;stroke:rgb(0%,0%,0%);stroke-opacity:1;stroke-miterlimit:10;" d="M 197.746094 69.964844 L 197.746094 69.964844 M 198.476562 67.058594 L 197.4375 66.980469 M 199.207031 64.148438 L 197.125 64 M 199.9375 61.238281 L 196.816406 61.015625 M 200.667969 58.328125 L 196.507812 58.03125 M 201.402344 55.417969 L 196.199219 55.046875 M 202.132812 52.507812 L 195.890625 52.0625 M 202.863281 49.601562 L 195.582031 49.078125 M 203.222656 48.160156 L 195.429688 47.601562 "/>
<path style="fill:none;stroke-width:1.2;stroke-linecap:butt;stroke-linejoin:miter;stroke:rgb(0%,0%,0%);stroke-opacity:1;stroke-miterlimit:10;" d="M 197.746094 69.964844 L 216.078125 82.378906 "/>
<path style="fill:none;stroke-width:1.2;stroke-linecap:butt;stroke-linejoin:miter;stroke:rgb(0%,0%,0%);stroke-opacity:1;stroke-miterlimit:10;" d="M 197.746094 69.964844 L 187.785156 74.800781 "/>
<path style="fill:none;stroke-width:1.2;stroke-linecap:butt;stroke-linejoin:miter;stroke:rgb(0%,0%,100%);stroke-opacity:1;stroke-miterlimit:10;" d="M 187.785156 74.800781 L 177.828125 79.636719 "/>
<path style="fill:none;stroke-width:1.2;stroke-linecap:butt;stroke-linejoin:miter;stroke:rgb(0%,0%,0%);stroke-opacity:1;stroke-miterlimit:10;" d="M 216.078125 82.378906 L 226.035156 77.542969 "/>
<path style="fill:none;stroke-width:1.2;stroke-linecap:butt;stroke-linejoin:miter;stroke:rgb(100%,0%,0%);stroke-opacity:1;stroke-miterlimit:10;" d="M 226.035156 77.542969 L 235.996094 72.707031 "/>
<path style=" stroke:none;fill-rule:nonzero;fill:rgb(100%,100%,100%);fill-opacity:1;" d="M 228.996094 67.207031 L 243.996094 67.207031 L 243.996094 78.207031 L 228.996094 78.207031 Z M 228.996094 67.207031 "/>
<g style="fill:rgb(100%,0%,0%);fill-opacity:1;">
  <use xlink:href="#glyph0-1" x="228.996094" y="75.870117"/>
  <use xlink:href="#glyph0-2" x="236.337891" y="75.870117"/>
</g>
<path style="fill:none;stroke-width:1.2;stroke-linecap:butt;stroke-linejoin:miter;stroke:rgb(0%,0%,100%);stroke-opacity:1;stroke-miterlimit:10;" d="M 177.828125 79.636719 L 177.039062 90.679688 "/>
<path style="fill:none;stroke-width:1.2;stroke-linecap:butt;stroke-linejoin:miter;stroke:rgb(0%,0%,0%);stroke-opacity:1;stroke-miterlimit:10;" d="M 177.039062 90.679688 L 176.246094 101.722656 "/>
<path style=" stroke:none;fill-rule:nonzero;fill:rgb(100%,100%,100%);fill-opacity:1;" d="M 170.828125 74.136719 L 184.828125 74.136719 L 184.828125 85.136719 L 170.828125 85.136719 Z M 170.828125 74.136719 "/>
<g style="fill:rgb(0%,0%,100%);fill-opacity:1;">
  <use xlink:href="#glyph0-3" x="170.828125" y="82.799805"/>
  <use xlink:href="#glyph0-2" x="177.805664" y="82.799805"/>
</g>
<path style="fill:none;stroke-width:1.2;stroke-linecap:butt;stroke-linejoin:miter;stroke:rgb(0%,0%,0%);stroke-opacity:1;stroke-miterlimit:10;" d="M 174.785156 103.878906 L 183.953125 110.085938 "/>
<path style="fill:none;stroke-width:1.2;stroke-linecap:butt;stroke-linejoin:miter;stroke:rgb(100%,0%,0%);stroke-opacity:1;stroke-miterlimit:10;" d="M 183.953125 110.085938 L 193.121094 116.289062 "/>
<path style="fill:none;stroke-width:1.2;stroke-linecap:butt;stroke-linejoin:miter;stroke:rgb(0%,0%,0%);stroke-opacity:1;stroke-miterlimit:10;" d="M 177.707031 99.566406 L 186.875 105.769531 "/>
<path style="fill:none;stroke-width:1.2;stroke-linecap:butt;stroke-linejoin:miter;stroke:rgb(100%,0%,0%);stroke-opacity:1;stroke-miterlimit:10;" d="M 186.875 105.769531 L 196.039062 111.976562 "/>
<path style=" stroke:none;fill-rule:nonzero;fill:rgb(0%,0%,0%);fill-opacity:1;" d="M 156.328125 111.394531 L 177.953125 105.234375 L 174.539062 98.207031 Z M 156.328125 111.394531 "/>
<path style=" stroke:none;fill-rule:nonzero;fill:rgb(100%,100%,100%);fill-opacity:1;" d="M 190.578125 108.632812 L 198.578125 108.632812 L 198.578125 119.632812 L 190.578125 119.632812 Z M 190.578125 108.632812 "/>
<g style="fill:rgb(100%,0%,0%);fill-opacity:1;">
  <use xlink:href="#glyph0-1" x="190.578125" y="117.295898"/>
</g>
<path style="fill:none;stroke-width:1.2;stroke-linecap:butt;stroke-linejoin:miter;stroke:rgb(0%,0%,0%);stroke-opacity:1;stroke-miterlimit:10;" d="M 156.328125 111.394531 L 137.996094 98.980469 "/>
<path style="fill:none;stroke-width:1.2;stroke-linecap:butt;stroke-linejoin:miter;stroke:rgb(0%,0%,0%);stroke-opacity:1;stroke-miterlimit:10;" d="M 156.328125 111.394531 L 154.746094 133.476562 "/>
<path style="fill:none;stroke-width:1.2;stroke-linecap:butt;stroke-linejoin:miter;stroke:rgb(0%,0%,0%);stroke-opacity:1;stroke-miterlimit:10;" d="M 154.746094 133.476562 L 173.082031 145.890625 "/>
<path style="fill:none;stroke-width:1.2;stroke-linecap:butt;stroke-linejoin:miter;stroke:rgb(0%,0%,0%);stroke-opacity:1;stroke-miterlimit:10;" d="M 153.660156 139.03125 L 168.328125 148.960938 "/>
<path style="fill:none;stroke-width:1.2;stroke-linecap:butt;stroke-linejoin:miter;stroke:rgb(0%,0%,0%);stroke-opacity:1;stroke-miterlimit:10;" d="M 173.082031 145.890625 L 171.5 167.972656 "/>
<path style="fill:none;stroke-width:1.2;stroke-linecap:butt;stroke-linejoin:miter;stroke:rgb(0%,0%,0%);stroke-opacity:1;stroke-miterlimit:10;" d="M 171.5 167.972656 L 189.832031 180.382812 "/>
<path style="fill:none;stroke-width:1.2;stroke-linecap:butt;stroke-linejoin:miter;stroke:rgb(0%,0%,0%);stroke-opacity:1;stroke-miterlimit:10;" d="M 171.5 167.972656 L 161.539062 172.808594 "/>
<path style="fill:none;stroke-width:1.2;stroke-linecap:butt;stroke-linejoin:miter;stroke:rgb(0%,0%,100%);stroke-opacity:1;stroke-miterlimit:10;" d="M 161.539062 172.808594 L 151.582031 177.644531 "/>
<path style="fill:none;stroke-width:1.2;stroke-linecap:butt;stroke-linejoin:miter;stroke:rgb(0%,0%,0%);stroke-opacity:1;stroke-miterlimit:10;" d="M 189.832031 180.382812 L 188.25 202.46875 "/>
<path style="fill:none;stroke-width:1.2;stroke-linecap:butt;stroke-linejoin:miter;stroke:rgb(0%,0%,0%);stroke-opacity:1;stroke-miterlimit:10;" d="M 194.871094 182.964844 L 193.605469 200.632812 "/>
<path style="fill:none;stroke-width:1.2;stroke-linecap:butt;stroke-linejoin:miter;stroke:rgb(0%,0%,0%);stroke-opacity:1;stroke-miterlimit:10;" d="M 209.75 170.714844 L 189.832031 180.382812 "/>
<path style="fill:none;stroke-width:1.2;stroke-linecap:butt;stroke-linejoin:miter;stroke:rgb(0%,0%,0%);stroke-opacity:1;stroke-miterlimit:10;" d="M 188.25 202.46875 L 206.582031 214.878906 "/>
<path style="fill:none;stroke-width:1.2;stroke-linecap:butt;stroke-linejoin:miter;stroke:rgb(0%,0%,0%);stroke-opacity:1;stroke-miterlimit:10;" d="M 206.582031 214.878906 L 226.5 205.210938 "/>
<path style="fill:none;stroke-width:1.2;stroke-linecap:butt;stroke-linejoin:miter;stroke:rgb(0%,0%,0%);stroke-opacity:1;stroke-miterlimit:10;" d="M 206.300781 209.226562 L 222.234375 201.488281 "/>
<path style="fill:none;stroke-width:1.2;stroke-linecap:butt;stroke-linejoin:miter;stroke:rgb(0%,0%,0%);stroke-opacity:1;stroke-miterlimit:10;" d="M 226.5 205.210938 L 228.082031 183.125 "/>
<path style="fill:none;stroke-width:1.2;stroke-linecap:butt;stroke-linejoin:miter;stroke:rgb(0%,0%,0%);stroke-opacity:1;stroke-miterlimit:10;" d="M 226.5 205.210938 L 244.832031 217.621094 "/>
<path style="fill:none;stroke-width:1.2;stroke-linecap:butt;stroke-linejoin:miter;stroke:rgb(0%,0%,0%);stroke-opacity:1;stroke-miterlimit:10;" d="M 228.082031 183.125 L 209.75 170.714844 "/>
<path style="fill:none;stroke-width:1.2;stroke-linecap:butt;stroke-linejoin:miter;stroke:rgb(0%,0%,0%);stroke-opacity:1;stroke-miterlimit:10;" d="M 223.328125 186.199219 L 208.660156 176.269531 "/>
<path style="fill:none;stroke-width:1.2;stroke-linecap:butt;stroke-linejoin:miter;stroke:rgb(0%,0%,0%);stroke-opacity:1;stroke-miterlimit:10;" d="M 245.972656 219.964844 L 255.929688 215.128906 "/>
<path style="fill:none;stroke-width:1.2;stroke-linecap:butt;stroke-linejoin:miter;stroke:rgb(100%,0%,0%);stroke-opacity:1;stroke-miterlimit:10;" d="M 255.929688 215.128906 L 265.886719 210.292969 "/>
<path style="fill:none;stroke-width:1.2;stroke-linecap:butt;stroke-linejoin:miter;stroke:rgb(0%,0%,0%);stroke-opacity:1;stroke-miterlimit:10;" d="M 243.695312 215.277344 L 253.652344 210.441406 "/>
<path style="fill:none;stroke-width:1.2;stroke-linecap:butt;stroke-linejoin:miter;stroke:rgb(100%,0%,0%);stroke-opacity:1;stroke-miterlimit:10;" d="M 253.652344 210.441406 L 263.613281 205.605469 "/>
<path style="fill:none;stroke-width:1.2;stroke-linecap:butt;stroke-linejoin:miter;stroke:rgb(0%,0%,0%);stroke-opacity:1;stroke-miterlimit:10;" d="M 244.832031 217.621094 L 244.042969 228.664062 "/>
<path style="fill:none;stroke-width:1.2;stroke-linecap:butt;stroke-linejoin:miter;stroke:rgb(100%,0%,0%);stroke-opacity:1;stroke-miterlimit:10;" d="M 244.042969 228.664062 L 243.25 239.703125 "/>
<path style=" stroke:none;fill-rule:nonzero;fill:rgb(100%,100%,100%);fill-opacity:1;" d="M 260.75 202.449219 L 268.75 202.449219 L 268.75 213.449219 L 260.75 213.449219 Z M 260.75 202.449219 "/>
<g style="fill:rgb(100%,0%,0%);fill-opacity:1;">
  <use xlink:href="#glyph0-1" x="260.75" y="211.112305"/>
</g>
<path style="fill:none;stroke-width:1.2;stroke-linecap:butt;stroke-linejoin:miter;stroke:rgb(100%,0%,0%);stroke-opacity:1;stroke-miterlimit:10;" d="M 243.25 239.703125 L 252.417969 245.910156 "/>
<path style="fill:none;stroke-width:1.2;stroke-linecap:butt;stroke-linejoin:miter;stroke:rgb(0%,0%,0%);stroke-opacity:1;stroke-miterlimit:10;" d="M 252.417969 245.910156 L 261.585938 252.117188 "/>
<path style=" stroke:none;fill-rule:nonzero;fill:rgb(100%,100%,100%);fill-opacity:1;" d="M 239.25 234.203125 L 247.25 234.203125 L 247.25 245.203125 L 239.25 245.203125 Z M 239.25 234.203125 "/>
<g style="fill:rgb(100%,0%,0%);fill-opacity:1;">
  <use xlink:href="#glyph0-1" x="239.25" y="242.866211"/>
</g>
<path style="fill:none;stroke-width:1.2;stroke-linecap:butt;stroke-linejoin:miter;stroke:rgb(0%,0%,100%);stroke-opacity:1;stroke-miterlimit:10;" d="M 151.582031 177.644531 L 142.414062 171.4375 "/>
<path style="fill:none;stroke-width:1.2;stroke-linecap:butt;stroke-linejoin:miter;stroke:rgb(0%,0%,0%);stroke-opacity:1;stroke-miterlimit:10;" d="M 142.414062 171.4375 L 133.25 165.230469 "/>
<path style=" stroke:none;fill-rule:nonzero;fill:rgb(100%,100%,100%);fill-opacity:1;" d="M 144.582031 172.144531 L 158.582031 172.144531 L 158.582031 183.144531 L 144.582031 183.144531 Z M 144.582031 172.144531 "/>
<g style="fill:rgb(0%,0%,100%);fill-opacity:1;">
  <use xlink:href="#glyph0-3" x="144.582031" y="180.807617"/>
  <use xlink:href="#glyph0-2" x="151.55957" y="180.807617"/>
</g>
<path style="fill:none;stroke-width:1.2;stroke-linecap:butt;stroke-linejoin:miter;stroke:rgb(0%,0%,0%);stroke-opacity:1;stroke-miterlimit:10;" d="M 135.847656 165.417969 L 136.636719 154.375 "/>
<path style="fill:none;stroke-width:1.2;stroke-linecap:butt;stroke-linejoin:miter;stroke:rgb(100%,0%,0%);stroke-opacity:1;stroke-miterlimit:10;" d="M 136.636719 154.375 L 137.429688 143.335938 "/>
<path style="fill:none;stroke-width:1.2;stroke-linecap:butt;stroke-linejoin:miter;stroke:rgb(0%,0%,0%);stroke-opacity:1;stroke-miterlimit:10;" d="M 130.652344 165.046875 L 131.441406 154.003906 "/>
<path style="fill:none;stroke-width:1.2;stroke-linecap:butt;stroke-linejoin:miter;stroke:rgb(100%,0%,0%);stroke-opacity:1;stroke-miterlimit:10;" d="M 131.441406 154.003906 L 132.234375 142.960938 "/>
<path style="fill:none;stroke-width:1.2;stroke-linecap:butt;stroke-linejoin:miter;stroke:rgb(0%,0%,0%);stroke-opacity:1;stroke-miterlimit:10;" d="M 133.25 165.230469 L 123.289062 170.066406 "/>
<path style="fill:none;stroke-width:1.2;stroke-linecap:butt;stroke-linejoin:miter;stroke:rgb(100%,0%,0%);stroke-opacity:1;stroke-miterlimit:10;" d="M 123.289062 170.066406 L 113.332031 174.902344 "/>
<path style=" stroke:none;fill-rule:nonzero;fill:rgb(100%,100%,100%);fill-opacity:1;" d="M 130.832031 137.648438 L 138.832031 137.648438 L 138.832031 148.648438 L 130.832031 148.648438 Z M 130.832031 137.648438 "/>
<g style="fill:rgb(100%,0%,0%);fill-opacity:1;">
  <use xlink:href="#glyph0-1" x="130.832031" y="146.311523"/>
</g>
<path style="fill:none;stroke-width:1.2;stroke-linecap:butt;stroke-linejoin:miter;stroke:rgb(100%,0%,0%);stroke-opacity:1;stroke-miterlimit:10;" d="M 113.332031 174.902344 L 104.164062 168.695312 "/>
<path style="fill:none;stroke-width:1.2;stroke-linecap:butt;stroke-linejoin:miter;stroke:rgb(0%,0%,0%);stroke-opacity:1;stroke-miterlimit:10;" d="M 104.164062 168.695312 L 95 162.492188 "/>
<path style=" stroke:none;fill-rule:nonzero;fill:rgb(100%,100%,100%);fill-opacity:1;" d="M 109.332031 169.402344 L 117.332031 169.402344 L 117.332031 180.402344 L 109.332031 180.402344 Z M 109.332031 169.402344 "/>
<g style="fill:rgb(100%,0%,0%);fill-opacity:1;">
  <use xlink:href="#glyph0-1" x="109.332031" y="178.06543"/>
</g>
<path style="fill:none;stroke-width:1.2;stroke-linecap:butt;stroke-linejoin:miter;stroke:rgb(0%,0%,0%);stroke-opacity:1;stroke-miterlimit:10;" d="M 95 162.492188 L 75.082031 172.160156 "/>
<path style="fill:none;stroke-width:1.2;stroke-linecap:butt;stroke-linejoin:miter;stroke:rgb(0%,0%,0%);stroke-opacity:1;stroke-miterlimit:10;" d="M 75.082031 172.160156 L 56.75 159.75 "/>
<path style="fill:none;stroke-width:1.2;stroke-linecap:butt;stroke-linejoin:miter;stroke:rgb(0%,0%,0%);stroke-opacity:1;stroke-miterlimit:10;" d="M 70.328125 175.234375 L 55.660156 165.304688 "/>
<path style="fill:none;stroke-width:1.2;stroke-linecap:butt;stroke-linejoin:miter;stroke:rgb(0%,0%,0%);stroke-opacity:1;stroke-miterlimit:10;" d="M 73.5 194.246094 L 75.082031 172.160156 "/>
<path style="fill:none;stroke-width:1.2;stroke-linecap:butt;stroke-linejoin:miter;stroke:rgb(0%,0%,0%);stroke-opacity:1;stroke-miterlimit:10;" d="M 56.75 159.75 L 36.832031 169.421875 "/>
<path style="fill:none;stroke-width:1.2;stroke-linecap:butt;stroke-linejoin:miter;stroke:rgb(0%,0%,0%);stroke-opacity:1;stroke-miterlimit:10;" d="M 36.832031 169.421875 L 35.25 191.503906 "/>
<path style="fill:none;stroke-width:1.2;stroke-linecap:butt;stroke-linejoin:miter;stroke:rgb(0%,0%,0%);stroke-opacity:1;stroke-miterlimit:10;" d="M 41.871094 172 L 40.605469 189.667969 "/>
<path style="fill:none;stroke-width:1.2;stroke-linecap:butt;stroke-linejoin:miter;stroke:rgb(0%,0%,0%);stroke-opacity:1;stroke-miterlimit:10;" d="M 35.25 191.503906 L 53.582031 203.917969 "/>
<path style="fill:none;stroke-width:1.2;stroke-linecap:butt;stroke-linejoin:miter;stroke:rgb(0%,0%,0%);stroke-opacity:1;stroke-miterlimit:10;" d="M 53.582031 203.917969 L 73.5 194.246094 "/>
<path style="fill:none;stroke-width:1.2;stroke-linecap:butt;stroke-linejoin:miter;stroke:rgb(0%,0%,0%);stroke-opacity:1;stroke-miterlimit:10;" d="M 53.300781 198.265625 L 69.234375 190.527344 "/>
</g>
</svg>

<svg xmlns="http://www.w3.org/2000/svg" xmlns:xlink="http://www.w3.org/1999/xlink" width="300pt" height="300pt" viewBox="0 0 300 300"><defs><symbol overflow="visible"><path d="M.453 1.594v-7.938h4.5v7.938zm.5-.5h3.5v-6.938h-3.5zm0 0"/></symbol><symbol overflow="visible" id="a"><path d="M3.547-5.953c-.65 0-1.164.242-1.547.72-.375.48-.563 1.13-.563 1.952 0 .835.188 1.49.563 1.967.383.48.898.72 1.547.72.644 0 1.156-.24 1.53-.72.376-.476.564-1.132.564-1.968 0-.822-.187-1.474-.562-1.954-.375-.477-.887-.72-1.53-.72zm0-.734c.914 0 1.648.312 2.203.937.55.617.828 1.438.828 2.47 0 1.042-.277 1.87-.828 2.483-.555.617-1.29.922-2.203.922-.93 0-1.668-.305-2.22-.922C.774-1.41.5-2.237.5-3.28c0-1.033.273-1.853.828-2.47.55-.625 1.29-.938 2.22-.938zm0 0"/></symbol><symbol overflow="visible" id="b"><path d="M.89-6.563h.876v2.688H5v-2.688h.89V0H5v-3.125H1.766V0H.89zm0 0"/></symbol><symbol overflow="visible" id="c"><path d="M.89-6.563H2.08l2.906 5.485v-5.484h.86V0H4.656L1.75-5.484V0H.89zm0 0"/></symbol></defs><g><path fill="#fff" d="M0 0h300v300H0z"/><path d="M197.746 69.965m.73-2.906l-1.038-.08m1.77-2.832L197.124 64m2.813-2.762l-3.122-.222m3.852-2.688l-4.16-.297m4.894-2.612l-5.203-.37m5.933-2.54l-6.242-.446m6.973-2.46l-7.28-.524m7.64-.918l-7.793-.558" stroke="#000" stroke-miterlimit="10" fill="none"/><path d="M197.746 69.965l18.332 12.414M197.746 69.965l-9.96 4.836" stroke-width="1.2" stroke="#000" stroke-miterlimit="10" fill="none"/><path d="M187.785 74.8l-9.957 4.837" stroke-width="1.2" stroke="#00f" stroke-miterlimit="10" fill="none"/><path d="M216.078 82.38l9.957-4.837" stroke-width="1.2" stroke="#000" stroke-miterlimit="10" fill="none"/><path d="M226.035 77.543l9.96-4.836" stroke-width="1.2" stroke="#f00" stroke-miterlimit="10" fill="none"/><path d="M228.996 67.207h15v11h-15zm0 0" fill="#fff"/><g fill="#f00"><use xlink:href="#a" x="228.996" y="75.87"/><use xlink:href="#b" x="236.338" y="75.87"/></g><path d="M177.828 79.637l-.79 11.043" stroke-width="1.2" stroke="#00f" stroke-miterlimit="10" fill="none"/><path d="M177.04 90.68l-.794 11.043" stroke-width="1.2" stroke="#000" stroke-miterlimit="10" fill="none"/><path d="M170.828 74.137h14v11h-14zm0 0" fill="#fff"/><g fill="#00f"><use xlink:href="#c" x="170.828" y="82.8"/><use xlink:href="#b" x="177.806" y="82.8"/></g><path d="M174.785 103.88l9.168 6.206" stroke-width="1.2" stroke="#000" stroke-miterlimit="10" fill="none"/><path d="M183.953 110.086l9.168 6.203" stroke-width="1.2" stroke="#f00" stroke-miterlimit="10" fill="none"/><path d="M177.707 99.566l9.168 6.204" stroke-width="1.2" stroke="#000" stroke-miterlimit="10" fill="none"/><path d="M186.875 105.77l9.164 6.207" stroke-width="1.2" stroke="#f00" stroke-miterlimit="10" fill="none"/><path d="M156.328 111.395l21.625-6.16-3.414-7.028zm0 0"/><path d="M190.578 108.633h8v11h-8zm0 0" fill="#fff"/><use xlink:href="#a" x="190.578" y="117.296" fill="#f00"/><path d="M156.328 111.395L137.996 98.98M156.328 111.395l-1.582 22.082M154.746 133.477l18.336 12.414M153.66 139.03l14.668 9.93M173.082 145.89l-1.582 22.083M171.5 167.973l18.332 12.41M171.5 167.973l-9.96 4.836" stroke-width="1.2" stroke="#000" stroke-miterlimit="10" fill="none"/><path d="M161.54 172.81l-9.958 4.835" stroke-width="1.2" stroke="#00f" stroke-miterlimit="10" fill="none"/><path d="M189.832 180.383l-1.582 22.086M194.87 182.965l-1.265 17.668M209.75 170.715l-19.918 9.668M188.25 202.47l18.332 12.41M206.582 214.88l19.918-9.67M206.3 209.227l15.934-7.74M226.5 205.21l1.582-22.085M226.5 205.21l18.332 12.41M228.082 183.125l-18.332-12.41M223.328 186.2l-14.668-9.93M245.973 219.965l9.957-4.836" stroke-width="1.2" stroke="#000" stroke-miterlimit="10" fill="none"/><path d="M255.93 215.13l9.957-4.837" stroke-width="1.2" stroke="#f00" stroke-miterlimit="10" fill="none"/><path d="M243.695 215.277l9.957-4.836" stroke-width="1.2" stroke="#000" stroke-miterlimit="10" fill="none"/><path d="M253.652 210.44l9.96-4.835" stroke-width="1.2" stroke="#f00" stroke-miterlimit="10" fill="none"/><path d="M244.832 217.62l-.79 11.044" stroke-width="1.2" stroke="#000" stroke-miterlimit="10" fill="none"/><path d="M244.043 228.664l-.793 11.04" stroke-width="1.2" stroke="#f00" stroke-miterlimit="10" fill="none"/><path d="M260.75 202.45h8v11h-8zm0 0" fill="#fff"/><use xlink:href="#a" x="260.75" y="211.112" fill="#f00"/><path d="M243.25 239.703l9.168 6.207" stroke-width="1.2" stroke="#f00" stroke-miterlimit="10" fill="none"/><path d="M252.418 245.91l9.168 6.207" stroke-width="1.2" stroke="#000" stroke-miterlimit="10" fill="none"/><path d="M239.25 234.203h8v11h-8zm0 0" fill="#fff"/><use xlink:href="#a" x="239.25" y="242.866" fill="#f00"/><path d="M151.582 177.645l-9.168-6.208" stroke-width="1.2" stroke="#00f" stroke-miterlimit="10" fill="none"/><path d="M142.414 171.438l-9.164-6.208" stroke-width="1.2" stroke="#000" stroke-miterlimit="10" fill="none"/><path d="M144.582 172.145h14v11h-14zm0 0" fill="#fff"/><g fill="#00f"><use xlink:href="#c" x="144.582" y="180.808"/><use xlink:href="#b" x="151.56" y="180.808"/></g><path d="M135.848 165.418l.79-11.043" stroke-width="1.2" stroke="#000" stroke-miterlimit="10" fill="none"/><path d="M136.637 154.375l.793-11.04" stroke-width="1.2" stroke="#f00" stroke-miterlimit="10" fill="none"/><path d="M130.652 165.047l.79-11.043" stroke-width="1.2" stroke="#000" stroke-miterlimit="10" fill="none"/><path d="M131.44 154.004l.794-11.043" stroke-width="1.2" stroke="#f00" stroke-miterlimit="10" fill="none"/><path d="M133.25 165.23l-9.96 4.836" stroke-width="1.2" stroke="#000" stroke-miterlimit="10" fill="none"/><path d="M123.29 170.066l-9.958 4.836" stroke-width="1.2" stroke="#f00" stroke-miterlimit="10" fill="none"/><path d="M130.832 137.648h8v11h-8zm0 0" fill="#fff"/><use xlink:href="#a" x="130.832" y="146.312" fill="#f00"/><path d="M113.332 174.902l-9.168-6.207" stroke-width="1.2" stroke="#f00" stroke-miterlimit="10" fill="none"/><path d="M104.164 168.695L95 162.492" stroke-width="1.2" stroke="#000" stroke-miterlimit="10" fill="none"/><path d="M109.332 169.402h8v11h-8zm0 0" fill="#fff"/><use xlink:href="#a" x="109.332" y="178.065" fill="#f00"/><path d="M95 162.492l-19.918 9.668M75.082 172.16L56.75 159.75M70.328 175.234l-14.668-9.93M73.5 194.246l1.582-22.086M56.75 159.75l-19.918 9.672M36.832 169.422l-1.582 22.082M41.87 172l-1.265 17.668M35.25 191.504l18.332 12.414M53.582 203.918l19.918-9.672M53.3 198.266l15.934-7.74" stroke-width="1.2" stroke="#000" stroke-miterlimit="10" fill="none"/></g></svg>
